build/img/svg/service5.svg

<svg width="44" height="48" viewBox="0 0 44 48" fill="none" xmlns="http://www.w3.org/2000/svg">
<g clip-path="url(#clip0)">
<path d="M43.6452 15.983C43.3918 13.5319 41.5669 10.3149 39.6406 8.83404C39.6406 8.83404 36.7005 6.6383 33.0508 4.49362C29.401 2.24681 26.0554 0.765957 26.0554 0.765957C24.9402 0.255319 23.4701 0 22.0508 0C20.5807 0 19.1107 0.255319 18.0462 0.765957C18.0462 0.765957 14.7512 2.24681 11.0508 4.44255C7.40101 6.6383 4.46092 8.78298 4.46092 8.78298C2.48396 10.2638 0.709767 13.4809 0.456311 15.9319C0.456311 15.9319 0.0507812 19.6085 0.0507812 24C0.0507812 28.3404 0.456311 32.0681 0.456311 32.0681C0.709767 34.5191 2.53465 37.7362 4.46092 39.217C4.46092 39.217 7.40101 41.4128 11.0508 43.6085C14.7005 45.8043 18.0462 47.2851 18.0462 47.2851C19.1614 47.7957 20.6314 48.0511 22.0508 48.0511C23.5208 48.0511 24.9909 47.7957 26.0554 47.2851C26.0554 47.2851 29.3503 45.8043 33.0508 43.6085C36.7005 41.4128 39.6406 39.217 39.6406 39.217C41.6176 37.7362 43.3918 34.5191 43.6452 32.0681C43.6452 32.0681 44.0508 28.3915 44.0508 24C44.0508 19.6596 43.6452 15.983 43.6452 15.983ZM41.6176 31.8128C41.4148 33.7532 39.8941 36.4085 38.424 37.5319C38.3734 37.5319 35.5346 39.6766 32.037 41.7702C28.5393 43.8638 25.295 45.3447 25.2443 45.3447C24.4333 45.7021 23.2674 45.9064 22.0508 45.9064C20.8342 45.9064 19.6683 45.7021 18.8572 45.3447C18.8065 45.3447 15.613 43.8638 12.0646 41.7702C8.56691 39.6766 5.67751 37.5319 5.67751 37.5319C4.15677 36.4085 2.68673 33.7021 2.48396 31.8128C2.48396 31.7617 2.12912 28.1872 2.12912 24C2.12912 19.8128 2.48396 16.1872 2.48396 16.1872C2.68673 14.2468 4.20746 11.5915 5.67751 10.4681C5.7282 10.4681 8.56691 8.3234 12.0646 6.22979C15.5623 4.13617 18.8065 2.65532 18.8572 2.65532C19.6683 2.24681 20.8342 2.04255 22.0508 2.04255C23.2674 2.04255 24.4333 2.24681 25.2443 2.60426C25.295 2.60426 28.4886 4.08511 32.037 6.17872C35.5346 8.27234 38.424 10.417 38.424 10.417C39.9448 11.5404 41.4148 14.2468 41.6176 16.1362C41.6176 16.1872 41.9724 19.7617 41.9724 23.9489C42.0231 28.1872 41.6683 31.8128 41.6176 31.8128Z" fill="#882C80"/>
<path d="M26.4608 12.6127C26.1059 12.2553 25.599 12.051 25.0414 12.051H15.0552C13.94 12.051 13.0276 12.9702 13.0276 14.0936V32.9872C13.0276 34.1106 13.94 35.0297 15.0552 35.0297H29.3502C30.4654 35.0297 31.3778 34.1106 31.3778 32.9872V18.2808C31.3778 17.7191 31.1751 17.2085 30.7695 16.8L26.4608 12.6127ZM29.3502 18.2808H25.7511C25.3962 18.2808 25.0921 17.9744 25.0921 17.617V14.1957L29.3502 18.2808ZM15.0552 32.9872V14.0936H23.0645V17.617C23.0645 19.0978 24.281 20.3234 25.7511 20.3234H29.3502V32.9872H15.0552Z" fill="#882C80"/>
<path d="M25.6497 22.1106C25.2441 21.7021 24.6358 21.7021 24.2303 22.1106L18.4008 27.9319C17.9953 28.3404 17.9953 28.9531 18.4008 29.3616C18.6036 29.5659 18.857 29.668 19.1105 29.668C19.364 29.668 19.6174 29.5659 19.8202 29.3616L25.599 23.5404C26.0045 23.1319 26.0045 22.5191 25.6497 22.1106Z" fill="#882C80"/>
<path d="M24.9906 29.7192C25.7185 29.7192 26.3086 29.1247 26.3086 28.3915C26.3086 27.6583 25.7185 27.0638 24.9906 27.0638C24.2627 27.0638 23.6726 27.6583 23.6726 28.3915C23.6726 29.1247 24.2627 29.7192 24.9906 29.7192Z" fill="#882C80"/>
<path d="M19.4147 24.2553C20.1425 24.2553 20.7326 23.6609 20.7326 22.9276C20.7326 22.1944 20.1425 21.6 19.4147 21.6C18.6868 21.6 18.0967 22.1944 18.0967 22.9276C18.0967 23.6609 18.6868 24.2553 19.4147 24.2553Z" fill="#882C80"/>
</g>
<defs>
<clipPath id="clip0">
<rect width="44" height="48" fill="white"/>
</clipPath>
</defs>
</svg>

<svg width="44" height="48" fill="none" xmlns="http://www.w3.org/2000/svg"><g clip-path="url(#clip0)" fill="#882C80"><path d="M43.645 15.983c-.253-2.451-2.078-5.668-4.004-7.149 0 0-2.94-2.196-6.59-4.34A65.794 65.794 0 0026.055.766C24.94.256 23.47 0 22.051 0c-1.47 0-2.94.255-4.005.766 0 0-3.295 1.48-6.995 3.677-3.65 2.195-6.59 4.34-6.59 4.34C2.484 10.263.71 13.481.456 15.932c0 0-.405 3.676-.405 8.068 0 4.34.405 8.068.405 8.068.254 2.451 2.079 5.668 4.005 7.149 0 0 2.94 2.196 6.59 4.392a70.982 70.982 0 006.995 3.676c1.115.51 2.585.766 4.005.766 1.47 0 2.94-.255 4.004-.766 0 0 3.295-1.48 6.996-3.676a88.995 88.995 0 006.59-4.392c1.977-1.48 3.75-4.698 4.004-7.149 0 0 .406-3.676.406-8.068 0-4.34-.406-8.017-.406-8.017zm-2.027 15.83c-.203 1.94-1.724 4.595-3.194 5.719-.05 0-2.89 2.145-6.387 4.238-3.498 2.094-6.742 3.575-6.793 3.575-.81.357-1.977.561-3.193.561-1.217 0-2.383-.204-3.194-.561-.05 0-3.244-1.481-6.792-3.575-3.498-2.093-6.387-4.238-6.387-4.238-1.521-1.123-2.991-3.83-3.194-5.72 0-.05-.355-3.625-.355-7.812s.355-7.813.355-7.813c.203-1.94 1.723-4.596 3.194-5.719.05 0 2.889-2.145 6.387-4.238 3.497-2.094 6.742-3.575 6.792-3.575.811-.408 1.977-.612 3.194-.612 1.216 0 2.382.204 3.193.561.051 0 3.245 1.481 6.793 3.575a87.04 87.04 0 016.387 4.238c1.52 1.123 2.99 3.83 3.194 5.72 0 .05.354 3.625.354 7.812.051 4.238-.304 7.864-.354 7.864z"/><path d="M26.46 12.613c-.354-.358-.861-.562-1.419-.562h-9.986c-1.115 0-2.027.92-2.027 2.043v18.893a2.04 2.04 0 002.027 2.043H29.35c1.115 0 2.028-.92 2.028-2.043V18.281c0-.562-.203-1.072-.608-1.481l-4.31-4.187zm2.89 5.668h-3.599a.673.673 0 01-.659-.664v-3.421l4.258 4.085zM15.055 32.987V14.094h8.01v3.523c0 1.48 1.216 2.706 2.686 2.706h3.6v12.664H15.054z"/><path d="M25.65 22.11a.975.975 0 00-1.42 0l-5.83 5.822a.992.992 0 000 1.43.997.997 0 00.71.306.997.997 0 00.71-.306l5.78-5.822a1.04 1.04 0 00.05-1.43zm-.66 7.61c.729 0 1.319-.595 1.319-1.328 0-.734-.59-1.328-1.318-1.328-.728 0-1.318.594-1.318 1.328 0 .733.59 1.327 1.318 1.327zm-5.575-5.465c.727 0 1.318-.594 1.318-1.327 0-.734-.59-1.328-1.318-1.328-.728 0-1.318.594-1.318 1.328 0 .733.59 1.327 1.318 1.327z"/></g><defs><clipPath id="clip0"><path fill="#fff" d="M0 0h44v48H0z"/></clipPath></defs></svg>
